X: 1
T: Leila's Birthday
Z: pbsinclair42
S: https://thesession.org/tunes/15034#setting27808
R: reel
M: 4/4
L: 1/8
K: Gmin
d2GG BAGF | G2DD BAGF | CEGe dGeG | EFdF cFAc |
d2GG BAGF | G2DD BAGF | CEGB cEEE |1 cBAB cGBc :|[2 cBAB cdef] |
g2gg b2(f2|f)fBf bagf | gfga baba | gfgb dcdf |
[1 g2gg b2(f2|f)fBf bagf | gfed edef | g2dB c2df :|]
[2 g2dB c2cd | (3GGG dG cdcB | cdE2 dcBc | d2fd gfdc :|]
